src/assets/LogoFooter.svg

<svg width="300" height="59" viewBox="0 0 300 59" fill="none" xmlns="http://www.w3.org/2000/svg">
<path d="M51.4264 0.173828L39.5098 22.0823L44.3728 43.352L55.8254 24.7544L51.4264 0.173828Z" fill="#FBBA01"/>
<path d="M13.6871 58.7874L0 0H15.8276L21.6769 25.8037L34.7519 0L51.4397 0.172025L19.5975 58.7874H13.6871Z" fill="#FB0200"/>
<path d="M69.1545 0L55.7354 24.7716L44.3809 43.3502L48.2107 58.7874H52.8768L75.384 18.1425L69.1545 0Z" fill="#32AB15"/>
<path d="M78.0972 23.7394L75.3807 18.1425L65.8164 35.4412L70.7601 58.7874H75.5817L107 0H91.8604L78.0972 23.7394Z" fill="#4184ED"/>
<path d="M127.828 35.4414L132.853 18.5664H137.745L130.318 39.8945H127.096L127.828 35.4414ZM123.199 18.5664L128.209 35.4414L128.971 39.8945H125.719L118.336 18.5664H123.199ZM147.354 36.3203V29.2598C147.354 28.752 147.271 28.3174 147.105 27.9561C146.939 27.585 146.681 27.2969 146.329 27.0918C145.987 26.8867 145.543 26.7842 144.996 26.7842C144.527 26.7842 144.122 26.8672 143.78 27.0332C143.438 27.1895 143.175 27.4189 142.989 27.7217C142.804 28.0146 142.711 28.3613 142.711 28.7617H138.492C138.492 28.0879 138.648 27.4482 138.961 26.8428C139.273 26.2373 139.728 25.7051 140.323 25.2461C140.919 24.7773 141.627 24.4111 142.447 24.1475C143.277 23.8838 144.205 23.752 145.23 23.752C146.461 23.752 147.555 23.957 148.512 24.3672C149.469 24.7773 150.221 25.3926 150.768 26.2129C151.324 27.0332 151.603 28.0586 151.603 29.2891V36.0713C151.603 36.9404 151.656 37.6533 151.764 38.21C151.871 38.7568 152.027 39.2354 152.232 39.6455V39.8945H147.97C147.765 39.4648 147.608 38.9277 147.501 38.2832C147.403 37.6289 147.354 36.9746 147.354 36.3203ZM147.911 30.2412L147.94 32.6289H145.582C145.025 32.6289 144.542 32.6924 144.132 32.8193C143.722 32.9463 143.385 33.127 143.121 33.3613C142.857 33.5859 142.662 33.8496 142.535 34.1523C142.418 34.4551 142.359 34.7871 142.359 35.1484C142.359 35.5098 142.442 35.8369 142.608 36.1299C142.774 36.4131 143.014 36.6377 143.326 36.8037C143.639 36.96 144.005 37.0381 144.425 37.0381C145.06 37.0381 145.611 36.9111 146.08 36.6572C146.549 36.4033 146.91 36.0908 147.164 35.7197C147.428 35.3486 147.564 34.9971 147.574 34.665L148.688 36.4521C148.531 36.8525 148.316 37.2676 148.043 37.6973C147.779 38.127 147.442 38.5322 147.032 38.9131C146.622 39.2842 146.129 39.5918 145.553 39.8359C144.977 40.0703 144.293 40.1875 143.502 40.1875C142.496 40.1875 141.583 39.9873 140.763 39.5869C139.952 39.1768 139.308 38.6152 138.829 37.9023C138.36 37.1797 138.126 36.3594 138.126 35.4414C138.126 34.6113 138.282 33.874 138.595 33.2295C138.907 32.585 139.366 32.043 139.972 31.6035C140.587 31.1543 141.354 30.8174 142.271 30.5928C143.189 30.3584 144.254 30.2412 145.465 30.2412H147.911ZM158.971 17.3945V39.8945H154.752V17.3945H158.971ZM158.37 31.4131H157.213C157.223 30.3096 157.369 29.2939 157.652 28.3662C157.936 27.4287 158.341 26.6182 158.868 25.9346C159.396 25.2412 160.025 24.7041 160.758 24.3232C161.5 23.9424 162.32 23.752 163.219 23.752C164 23.752 164.708 23.8643 165.343 24.0889C165.987 24.3037 166.539 24.6553 166.998 25.1436C167.467 25.6221 167.828 26.252 168.082 27.0332C168.336 27.8145 168.463 28.7617 168.463 29.875V39.8945H164.215V29.8457C164.215 29.1426 164.112 28.5908 163.907 28.1904C163.712 27.7803 163.424 27.4922 163.043 27.3262C162.672 27.1504 162.213 27.0625 161.666 27.0625C161.061 27.0625 160.543 27.1748 160.113 27.3994C159.693 27.624 159.356 27.9365 159.103 28.3369C158.849 28.7275 158.663 29.1865 158.546 29.7139C158.429 30.2412 158.37 30.8076 158.37 31.4131ZM180.226 36.3203V29.2598C180.226 28.752 180.143 28.3174 179.977 27.9561C179.811 27.585 179.552 27.2969 179.2 27.0918C178.858 26.8867 178.414 26.7842 177.867 26.7842C177.398 26.7842 176.993 26.8672 176.651 27.0332C176.31 27.1895 176.046 27.4189 175.86 27.7217C175.675 28.0146 175.582 28.3613 175.582 28.7617H171.363C171.363 28.0879 171.52 27.4482 171.832 26.8428C172.145 26.2373 172.599 25.7051 173.194 25.2461C173.79 24.7773 174.498 24.4111 175.318 24.1475C176.148 23.8838 177.076 23.752 178.102 23.752C179.332 23.752 180.426 23.957 181.383 24.3672C182.34 24.7773 183.092 25.3926 183.639 26.2129C184.195 27.0332 184.474 28.0586 184.474 29.2891V36.0713C184.474 36.9404 184.527 37.6533 184.635 38.21C184.742 38.7568 184.898 39.2354 185.104 39.6455V39.8945H180.841C180.636 39.4648 180.479 38.9277 180.372 38.2832C180.274 37.6289 180.226 36.9746 180.226 36.3203ZM180.782 30.2412L180.812 32.6289H178.453C177.896 32.6289 177.413 32.6924 177.003 32.8193C176.593 32.9463 176.256 33.127 175.992 33.3613C175.729 33.5859 175.533 33.8496 175.406 34.1523C175.289 34.4551 175.23 34.7871 175.23 35.1484C175.23 35.5098 175.313 35.8369 175.479 36.1299C175.646 36.4131 175.885 36.6377 176.197 36.8037C176.51 36.96 176.876 37.0381 177.296 37.0381C177.931 37.0381 178.482 36.9111 178.951 36.6572C179.42 36.4033 179.781 36.0908 180.035 35.7197C180.299 35.3486 180.436 34.9971 180.445 34.665L181.559 36.4521C181.402 36.8525 181.188 37.2676 180.914 37.6973C180.65 38.127 180.313 38.5322 179.903 38.9131C179.493 39.2842 179 39.5918 178.424 39.8359C177.848 40.0703 177.164 40.1875 176.373 40.1875C175.367 40.1875 174.454 39.9873 173.634 39.5869C172.823 39.1768 172.179 38.6152 171.7 37.9023C171.231 37.1797 170.997 36.3594 170.997 35.4414C170.997 34.6113 171.153 33.874 171.466 33.2295C171.778 32.585 172.237 32.043 172.843 31.6035C173.458 31.1543 174.225 30.8174 175.143 30.5928C176.061 30.3584 177.125 30.2412 178.336 30.2412H180.782ZM191.856 27.4287V39.8945H187.638V24.0449H191.593L191.856 27.4287ZM191.241 31.4131H190.099C190.099 30.2412 190.25 29.1865 190.553 28.249C190.855 27.3018 191.28 26.4961 191.827 25.832C192.374 25.1582 193.023 24.6455 193.775 24.2939C194.537 23.9326 195.387 23.752 196.324 23.752C197.066 23.752 197.745 23.8594 198.36 24.0742C198.976 24.2891 199.503 24.6309 199.942 25.0996C200.392 25.5684 200.733 26.1885 200.968 26.96C201.212 27.7314 201.334 28.6738 201.334 29.7871V39.8945H197.086V29.7725C197.086 29.0693 196.988 28.5225 196.793 28.1318C196.598 27.7412 196.31 27.4678 195.929 27.3115C195.558 27.1455 195.099 27.0625 194.552 27.0625C193.985 27.0625 193.492 27.1748 193.072 27.3994C192.662 27.624 192.32 27.9365 192.047 28.3369C191.783 28.7275 191.583 29.1865 191.446 29.7139C191.31 30.2412 191.241 30.8076 191.241 31.4131ZM209.068 35.793L212.364 24.0449H215.045L214.181 28.6592L210.885 39.8945H208.644L209.068 35.793ZM207.398 24.0449L209.757 35.7783L209.977 39.8945H207.34L203.326 24.0449H207.398ZM218.062 35.5879L220.362 24.0449H224.449L220.436 39.8945H217.813L218.062 35.5879ZM215.411 24.0449L218.692 35.7051L219.146 39.8945H216.891L213.595 28.6738L212.76 24.0449H215.411ZM231.026 24.0449V39.8945H226.793V24.0449H231.026ZM226.529 19.9141C226.529 19.2988 226.744 18.791 227.174 18.3906C227.604 17.9902 228.18 17.79 228.902 17.79C229.615 17.79 230.187 17.9902 230.616 18.3906C231.056 18.791 231.275 19.2988 231.275 19.9141C231.275 20.5293 231.056 21.0371 230.616 21.4375C230.187 21.8379 229.615 22.0381 228.902 22.0381C228.18 22.0381 227.604 21.8379 227.174 21.4375C226.744 21.0371 226.529 20.5293 226.529 19.9141ZM238.731 27.502V39.8945H234.513V24.0449H238.482L238.731 27.502ZM243.507 23.9424L243.434 27.8535C243.229 27.8242 242.979 27.7998 242.687 27.7803C242.403 27.751 242.145 27.7363 241.91 27.7363C241.314 27.7363 240.797 27.8145 240.357 27.9707C239.928 28.1172 239.566 28.3369 239.273 28.6299C238.99 28.9229 238.775 29.2793 238.629 29.6992C238.492 30.1191 238.414 30.5977 238.395 31.1348L237.545 30.8711C237.545 29.8457 237.647 28.9033 237.853 28.0439C238.058 27.1748 238.355 26.418 238.746 25.7734C239.146 25.1289 239.635 24.6309 240.211 24.2793C240.787 23.9277 241.446 23.752 242.188 23.752C242.423 23.752 242.662 23.7715 242.906 23.8105C243.15 23.8398 243.351 23.8838 243.507 23.9424ZM252.501 40.1875C251.271 40.1875 250.167 39.9922 249.19 39.6016C248.214 39.2012 247.384 38.6494 246.7 37.9463C246.026 37.2432 245.509 36.4277 245.147 35.5C244.786 34.5625 244.605 33.5664 244.605 32.5117V31.9258C244.605 30.7246 244.776 29.626 245.118 28.6299C245.46 27.6338 245.948 26.7695 246.583 26.0371C247.228 25.3047 248.009 24.7432 248.927 24.3525C249.845 23.9521 250.88 23.752 252.032 23.752C253.155 23.752 254.151 23.9375 255.021 24.3086C255.89 24.6797 256.617 25.207 257.203 25.8906C257.799 26.5742 258.248 27.3945 258.551 28.3516C258.854 29.2988 259.005 30.3535 259.005 31.5156V33.2734H246.407V30.4609H254.859V30.1387C254.859 29.5527 254.752 29.0303 254.537 28.5713C254.332 28.1025 254.02 27.7314 253.6 27.458C253.18 27.1846 252.643 27.0479 251.988 27.0479C251.432 27.0479 250.953 27.1699 250.553 27.4141C250.152 27.6582 249.825 28 249.571 28.4395C249.327 28.8789 249.142 29.3965 249.015 29.9922C248.897 30.5781 248.839 31.2227 248.839 31.9258V32.5117C248.839 33.1465 248.927 33.7324 249.103 34.2695C249.288 34.8066 249.547 35.2705 249.879 35.6611C250.221 36.0518 250.631 36.3545 251.109 36.5693C251.598 36.7842 252.149 36.8916 252.765 36.8916C253.526 36.8916 254.234 36.7451 254.889 36.4521C255.553 36.1494 256.124 35.6953 256.603 35.0898L258.653 37.3164C258.321 37.7949 257.867 38.2539 257.291 38.6934C256.725 39.1328 256.041 39.4941 255.24 39.7773C254.439 40.0508 253.526 40.1875 252.501 40.1875Z" fill="white"/>
</svg>

<svg xmlns="http://www.w3.org/2000/svg" width="300" height="59" fill="none" viewBox="0 0 300 59"><path fill="#fbba01" d="M51.426.174 39.51 22.082l4.863 21.27 11.452-18.598z"/><path fill="#fb0200" d="M13.687 58.787 0 0h15.828l5.849 25.804L34.752 0 51.44.172 19.598 58.787z"/><path fill="#32ab15" d="m69.155 0-13.42 24.772L44.381 43.35l3.83 15.437h4.666l22.507-40.644z"/><path fill="#4184ed" d="m78.097 23.74-2.716-5.597-9.565 17.298 4.944 23.346h4.822L107 0H91.86z"/><path fill="#fff" d="m127.828 35.441 5.025-16.875h4.892l-7.427 21.329h-3.222zm-4.629-16.875 5.01 16.875.762 4.453h-3.252l-7.383-21.328zm24.155 17.754v-7.06q0-.762-.249-1.304a1.85 1.85 0 0 0-.776-.864q-.513-.308-1.333-.308-.703 0-1.216.25a1.76 1.76 0 0 0-.791.688q-.278.44-.278 1.04h-4.219q0-1.011.469-1.92.469-.907 1.362-1.596.894-.704 2.124-1.098 1.245-.396 2.783-.396 1.846 0 3.282.615 1.435.616 2.256 1.846.835 1.23.835 3.076v6.782q0 1.304.161 2.139.16.82.468 1.435v.25h-4.262q-.308-.645-.469-1.612a13 13 0 0 1-.147-1.963m.557-6.079.029 2.388h-2.358q-.835 0-1.45.19t-1.011.542a2.1 2.1 0 0 0-.586.791 2.7 2.7 0 0 0-.176.996q0 .543.249.982.25.425.718.674.47.234 1.099.234.952 0 1.655-.38.703-.382 1.084-.938.396-.557.41-1.055l1.114 1.787q-.236.6-.645 1.245-.396.645-1.011 1.216a5.2 5.2 0 0 1-1.479.923q-.864.352-2.051.352-1.509 0-2.739-.601a5 5 0 0 1-1.934-1.685q-.703-1.084-.703-2.46 0-1.245.469-2.212a4.3 4.3 0 0 1 1.377-1.626q.923-.675 2.299-1.011 1.377-.352 3.194-.352zm11.06-12.846v22.5h-4.219v-22.5zm-.601 14.018h-1.157q.015-1.656.439-3.047.426-1.406 1.216-2.431a5.6 5.6 0 0 1 1.89-1.612q1.113-.57 2.461-.571 1.172 0 2.124.337a3.95 3.95 0 0 1 1.655 1.055q.703.717 1.084 1.89.381 1.17.381 2.841v10.02h-4.248v-10.05q0-1.053-.308-1.655-.292-.615-.864-.864-.557-.264-1.377-.264-.908 0-1.553.337-.63.337-1.01.938-.381.586-.557 1.377a8 8 0 0 0-.176 1.7m21.856 4.907v-7.06q0-.762-.249-1.304a1.85 1.85 0 0 0-.777-.864q-.513-.308-1.333-.308-.703 0-1.216.25a1.77 1.77 0 0 0-.791.688q-.278.44-.278 1.04h-4.219q0-1.011.469-1.92a4.8 4.8 0 0 1 1.362-1.596q.894-.704 2.124-1.098 1.245-.396 2.784-.396 1.845 0 3.281.615 1.435.616 2.256 1.846.834 1.23.835 3.076v6.782q0 1.304.161 2.139a5.6 5.6 0 0 0 .469 1.435v.25h-4.263q-.308-.645-.469-1.612a13 13 0 0 1-.146-1.963m.556-6.079.03 2.388h-2.359q-.835 0-1.45.19t-1.011.542a2.1 2.1 0 0 0-.586.791 2.7 2.7 0 0 0-.176.996q0 .543.249.982.25.425.718.674.47.234 1.099.234.952 0 1.655-.38.703-.382 1.084-.938.396-.557.41-1.055l1.114 1.787q-.235.6-.645 1.245-.396.645-1.011 1.216a5.2 5.2 0 0 1-1.479.923q-.864.352-2.051.352-1.509 0-2.739-.601a5 5 0 0 1-1.934-1.685q-.703-1.084-.703-2.46 0-1.245.469-2.212a4.3 4.3 0 0 1 1.377-1.626q.923-.675 2.3-1.011 1.377-.352 3.193-.352zm11.074-2.812v12.466h-4.218v-15.85h3.955zm-.615 3.984h-1.142q0-1.758.454-3.164.453-1.42 1.274-2.417a5.5 5.5 0 0 1 1.948-1.538q1.143-.542 2.549-.542 1.113 0 2.036.322a3.9 3.9 0 0 1 1.582 1.026q.674.702 1.026 1.86.366 1.157.366 2.827v10.108h-4.248V29.772q0-1.055-.293-1.64a1.64 1.64 0 0 0-.864-.82q-.556-.25-1.377-.25-.85 0-1.48.337-.615.337-1.025.938-.396.586-.601 1.377a6.8 6.8 0 0 0-.205 1.7m17.827 4.38 3.296-11.748h2.681l-.864 4.614-3.296 11.236h-2.241zm-1.67-11.748 2.359 11.733.22 4.117h-2.637l-4.014-15.85zm10.664 11.543 2.3-11.543h4.087l-4.013 15.85h-2.623zm-2.651-11.543 3.281 11.66.454 4.19h-2.255l-3.296-11.221-.835-4.63zm15.615 0v15.85h-4.233v-15.85zm-4.497-4.13q0-.924.645-1.524t1.728-.601q1.07 0 1.714.6.66.601.659 1.524 0 .923-.659 1.523-.644.6-1.714.601-1.083 0-1.728-.6t-.645-1.524m12.202 7.587v12.393h-4.218v-15.85h3.969zm4.776-3.56-.073 3.912q-.308-.044-.747-.074a8 8 0 0 0-.777-.044q-.893 0-1.553.235a2.8 2.8 0 0 0-1.084.659q-.425.44-.644 1.07-.206.63-.234 1.435l-.85-.264q0-1.538.308-2.827.307-1.305.893-2.27.6-.967 1.465-1.495.864-.527 1.977-.527.352 0 .718.059.367.044.601.131m8.994 16.246q-1.845 0-3.311-.586-1.464-.6-2.49-1.656a7.4 7.4 0 0 1-1.553-2.446 8.2 8.2 0 0 1-.542-2.988v-.586q0-1.802.513-3.296t1.465-2.593a6.44 6.44 0 0 1 2.344-1.684q1.377-.6 3.105-.601 1.684 0 2.989.557a5.86 5.86 0 0 1 2.182 1.582q.894 1.025 1.348 2.46.454 1.422.454 3.165v1.757h-12.598v-2.812h8.452v-.322q0-.88-.322-1.568a2.5 2.5 0 0 0-.937-1.113q-.63-.41-1.612-.41-.834 0-1.435.366a2.8 2.8 0 0 0-.982 1.025q-.366.66-.556 1.553a10 10 0 0 0-.176 1.934v.586q0 .952.264 1.758.278.805.776 1.391.513.586 1.23.908.733.323 1.656.323 1.142 0 2.124-.44a4.6 4.6 0 0 0 1.714-1.362l2.05 2.226q-.498.719-1.362 1.377-.85.66-2.051 1.084-1.202.41-2.739.41"/></svg>
